X:46
T: Der Nachtjaeger
N: Q0133B
O: Mitteleuropa, Deutschland (DDR) , Pommern, Stralsund
N: Anhaengsel an der ersten Zeile.  Dritte Zeile =  Refrain auf
N: sinnfreie Silben.
R: Ballade, Jagd, Flucht, Vergewaltigung, Tod
M: 4/4
L: 1/8
K: G
D2 | GFGABABc | d2cBA2zB | d2cBF2z
A | ABAGFEFG | AGFED2z2 |
d2B2B3B | c2A2A3
A | GABcd2GA | B2A2G2

@@@ Tune index: 1544
